src/images/Twitericon.svg

<svg width="25" height="20" viewBox="0 0 25 20" fill="none" xmlns="http://www.w3.org/2000/svg">
<path d="M24.2561 2.94593C23.3586 3.33589 22.409 3.59281 21.4374 3.70855C22.4585 3.11061 23.2265 2.16066 23.5972 1.03687C22.6317 1.60141 21.5772 1.99752 20.4789 2.20822C20.0163 1.7235 19.4601 1.33789 18.8439 1.07482C18.2277 0.811763 17.5645 0.676749 16.8945 0.677987C14.182 0.677987 11.9868 2.84125 11.9868 5.50795C11.9849 5.87888 12.0274 6.24871 12.1134 6.60953C10.1683 6.51834 8.26364 6.02215 6.52129 5.15269C4.77894 4.28323 3.23726 3.05965 1.99489 1.56024C1.55903 2.29501 1.32853 3.13337 1.32746 3.98769C1.32746 5.66247 2.20124 7.14287 3.52064 8.01017C2.73894 7.99161 1.97325 7.78472 1.28859 7.40704V7.46686C1.28859 9.80957 2.98331 11.7585 5.22633 12.2021C4.80453 12.3146 4.36988 12.3715 3.93335 12.3716C3.62361 12.3721 3.31456 12.3421 3.01073 12.2819C3.63428 14.2009 5.44914 15.5966 7.59895 15.6364C5.85207 16.9827 3.70737 17.7103 1.50192 17.705C1.11045 17.7044 0.719339 17.6811 0.330566 17.6352C2.57417 19.0679 5.18219 19.8257 7.84418 19.8184C16.8841 19.8184 21.8227 12.4563 21.8227 6.0712C21.8227 5.86185 21.8172 5.6525 21.8072 5.44814C22.7658 4.76629 23.5951 3.91896 24.2561 2.94593Z" fill="#274C5B"/>
</svg>

<svg width="25" height="20" fill="none" xmlns="http://www.w3.org/2000/svg"><path d="M24.256 2.946a10.06 10.06 0 0 1-2.819.763 4.86 4.86 0 0 0 2.16-2.672c-.965.564-2.02.96-3.118 1.171a4.943 4.943 0 0 0-3.584-1.53c-2.713 0-4.908 2.163-4.908 4.83-.002.37.04.74.126 1.102A13.992 13.992 0 0 1 1.995 1.56a4.77 4.77 0 0 0-.668 2.428c0 1.674.874 3.155 2.194 4.022a4.86 4.86 0 0 1-2.232-.603v.06c0 2.343 1.694 4.292 3.937 4.735-.421.113-.856.17-1.293.17-.31 0-.618-.03-.922-.09.623 1.919 2.438 3.315 4.588 3.354a9.949 9.949 0 0 1-7.268 2 13.89 13.89 0 0 0 7.513 2.182c9.04 0 13.979-7.362 13.979-13.747 0-.21-.006-.418-.016-.623a9.892 9.892 0 0 0 2.45-2.502Z" fill="#274C5B"/></svg>
